assets/images/github.svg

<?xml version="1.0" encoding="UTF-8"?>
<svg width="65px" height="65px" viewBox="0 0 65 65" version="1.1" xmlns="http://www.w3.org/2000/svg" xmlns:xlink="http://www.w3.org/1999/xlink">
    <!-- Generator: Sketch 42 (36781) - http://www.bohemiancoding.com/sketch -->
    <title>github</title>
    <desc>Created with Sketch.</desc>
    <defs></defs>
    <g id="Page-1" stroke="none" stroke-width="1" fill="none" fill-rule="evenodd">
        <g id="Desktop-HD" transform="translate(-552.000000, -6745.000000)" fill="#3D9A9C">
            <g id="Group-21" transform="translate(552.000000, 6745.000000)">
                <path d="M0,32.5 C0,14.5507447 14.5507447,0 32.5,0 C50.4492553,0 65,14.5507447 65,32.5 C65,50.4492553 50.4492553,65 32.5,65 C14.5507447,65 0,50.4492553 0,32.5 Z M14,32.5023954 C14,40.6773736 19.300857,47.612976 26.6515338,50.059556 C27.5761126,50.2308319 27.9155537,49.6581759 27.9155537,49.1694727 C27.9155537,48.728261 27.8983978,47.2707305 27.8904326,45.7246513 C22.7436721,46.8439195 21.6576444,43.5415727 21.6576444,43.5415727 C20.8160878,41.4029217 19.6035355,40.8342489 19.6035355,40.8342489 C17.9250176,39.6858729 19.73006,39.7094655 19.73006,39.7094655 C21.5877955,39.8396842 22.5659863,41.616174 22.5659863,41.616174 C24.2160132,44.4448311 26.8938605,43.6270575 27.9495591,43.1542869 C28.1156034,41.9587258 28.5950486,41.1418714 29.1241234,40.6801312 C25.0149865,40.212263 20.695384,38.6257393 20.695384,31.5360192 C20.695384,29.5159438 21.4180749,27.8653832 22.6015235,26.5696303 C22.409439,26.1032941 21.7762037,24.2217102 22.780741,21.6731 C22.780741,21.6731 24.3342662,21.1758176 27.8696005,23.5696974 C29.3453115,23.1597382 30.9279404,22.9541458 32.5001532,22.9470987 C34.072366,22.9541458 35.6562202,23.1597382 37.1346885,23.5696974 C40.6657338,21.1758176 42.2171145,21.6731 42.2171145,21.6731 C43.2241027,24.2217102 42.590561,26.1032941 42.3984765,26.5696303 C43.5846823,27.8653832 44.3024715,29.5159438 44.3024715,31.5360192 C44.3024715,38.6425911 39.9745974,40.2073606 35.8550445,40.6654241 C36.518609,41.2396121 37.1098737,42.365621 37.1098737,44.0918617 C37.1098737,46.567243 37.0884289,48.5597427 37.0884289,49.1694727 C37.0884289,49.6618527 37.4214366,50.2387982 38.3591886,50.0571048 C45.7058828,47.6077672 51,40.674616 51,32.5023954 C51,22.2834428 42.7170855,14 32.5001532,14 C22.2841399,14 14,22.2834428 14,32.5023954 Z" id="github"></path>
            </g>
        </g>
    </g>
</svg>

<svg xmlns="http://www.w3.org/2000/svg" width="65" height="65" viewBox="0 0 65 65"><path fill="#3D9A9C" fill-rule="evenodd" d="M0 32.5C0 14.55 14.55 0 32.5 0S65 14.55 65 32.5 50.45 65 32.5 65 0 50.45 0 32.5zm14 .002c0 8.175 5.3 15.111 12.652 17.558.924.17 1.264-.402 1.264-.89 0-.442-.018-1.9-.026-3.445-5.146 1.119-6.232-2.183-6.232-2.183-.842-2.14-2.054-2.708-2.054-2.708-1.679-1.148.126-1.125.126-1.125 1.858.13 2.836 1.907 2.836 1.907 1.65 2.829 4.328 2.011 5.384 1.538.166-1.195.645-2.012 1.174-2.474-4.109-.468-8.429-2.054-8.429-9.144 0-2.02.723-3.67 1.907-4.966-.193-.467-.826-2.348.179-4.897 0 0 1.553-.497 5.089 1.897a17.73 17.73 0 0 1 4.63-.623 17.78 17.78 0 0 1 4.635.623c3.53-2.394 5.082-1.897 5.082-1.897 1.007 2.549.374 4.43.181 4.897 1.187 1.295 1.904 2.946 1.904 4.966 0 7.107-4.327 8.671-8.447 9.13.664.574 1.255 1.7 1.255 3.426 0 2.475-.022 4.468-.022 5.077 0 .493.333 1.07 1.271.888C45.706 47.607 51 40.675 51 32.502 51 22.283 42.717 14 32.5 14 22.284 14 14 22.283 14 32.502z"/></svg>
